packages/icon/src/svg/thumb-up-fill.icon.svg

<svg viewBox="0 0 24 24" xmlns="http://www.w3.org/2000/svg">
<path fill-rule="evenodd" d="M7.97965 8.7983C8.61195 8.69701 9.11064 8.57234 9.4 8.5C10.6879 8.13204 12.1599 7.07616 12.4 5.7C12.587 4.62803 12.5832 3.48872 12.58 2.75882C12.5797 2.69992 12.5798 2.64368 12.5799 2.59037C12.58 2.56477 12.58 2.53985 12.58 2.51562C12.58 1.09375 13 1 14 1C14.5781 1 15.5016 1.12854 16.3 2.01562C16.9651 2.75458 17.34 3.5 17.34 4.9C17.34 5.78303 17.2881 6.61191 17.14 7.30695C17.0672 7.64838 17.3209 8 17.67 8H20.2C21.7 8 23 9.3 23 10.8C23 11.3301 22.8439 11.7821 22.7386 12.0872C22.7247 12.1274 22.7117 12.165 22.7 12.2C22.7104 12.2311 22.7219 12.2646 22.7341 12.3C22.8394 12.6061 23 13.0727 23 13.7C23 14.3273 22.8393 14.7943 22.734 15.1003C22.7218 15.1357 22.7104 15.1689 22.7 15.2C22.9 15.6 23 16 23 16.7C23 17.9 22.3 18.6 22 18.9V19.2C22 20.8 20.8 22 19.2 22H15C12.3 22 10.7 21.4 9.1 20.8L8.8 20.7C8.73819 20.6382 8.44711 20.5382 7.92678 20.3763C7.77811 20.7421 7.41917 21 7 21H3C2.44772 21 2 20.5523 2 20V9C2 8.44772 2.44772 8 3 8H7C7.48319 8 7.88634 8.3427 7.97965 8.7983ZM4 10H6V19H4V10Z" />
</svg>

<svg aria-label="thumb up fill icon" viewBox="0 0 24 24"><path fill-rule="evenodd" d="M7.98 8.798A16.146 16.146 0 009.4 8.5c1.288-.368 2.76-1.424 3-2.8.187-1.072.183-2.211.18-2.941v-.243C12.58 1.094 13 1 14 1c.578 0 1.502.129 2.3 1.016.665.739 1.04 1.484 1.04 2.884 0 .883-.052 1.712-.2 2.407-.073.341.18.693.53.693h2.53c1.5 0 2.8 1.3 2.8 2.8 0 .53-.156.982-.261 1.287l-.039.113.034.1c.105.306.266.773.266 1.4 0 .627-.16 1.094-.266 1.4l-.034.1c.2.4.3.8.3 1.5 0 1.2-.7 1.9-1 2.2v.3c0 1.6-1.2 2.8-2.8 2.8H15c-2.7 0-4.3-.6-5.9-1.2l-.3-.1c-.062-.062-.353-.162-.873-.324A1 1 0 017 21H3a1 1 0 01-1-1V9a1 1 0 011-1h4a1 1 0 01.98.798zM4 10h2v9H4v-9z"/></svg>
